X: 8162
T: Cool Black Gold
R: polka
M: 2/4
K: Dmajor
|:FA A>B|AFED|FABA|dABA|FA A>B|AFED|FABA|d2 d2:|
|:fded|BdAF|ABdB|dfed/e/|fded|BdAF|ABdB|d2 d2:|

